assets/img/logo-01.svg

<svg viewBox="0 0 222.27 35.92" xmlns="http://www.w3.org/2000/svg"><g transform="translate(-9.81 -8.2)"><path d="m11.29 8.45h3v14.55h-3z"/><path d="m30.59 11.19h-4.19v-2.74h11.41v2.74h-4.19v11.81h-3z"/><path d="m57.86 19.87h-6.08l-1.15 3.13h-3.11l5.83-14.55h3l5.84 14.55h-3.19zm-1-2.55-2.08-5.57-2.07 5.57z"/><path d="m76.48 22.27a6.9 6.9 0 0 1 -2.54-2.68 8 8 0 0 1 -.94-3.87 8 8 0 0 1 .92-3.88 6.8 6.8 0 0 1 2.54-2.67 6.91 6.91 0 0 1 3.64-1 7 7 0 0 1 3.07.66 6.28 6.28 0 0 1 2.31 1.91l-1.94 2a4 4 0 0 0 -3.29-1.7 4 4 0 0 0 -3.66 2.24 5.34 5.34 0 0 0 -.53 2.41 5.37 5.37 0 0 0 .53 2.41 4.11 4.11 0 0 0 1.49 1.65 4.1 4.1 0 0 0 5.46-1.13l1.94 2a6.17 6.17 0 0 1 -2.32 1.93 7.06 7.06 0 0 1 -3.08.66 7 7 0 0 1 -3.6-.94z"/><path d="m97.83 22.57a2.13 2.13 0 0 1 -.52-1.45 2.06 2.06 0 0 1 .52-1.45 1.79 1.79 0 0 1 2.58 0 2 2 0 0 1 .53 1.45 2.09 2.09 0 0 1 -.53 1.45 1.72 1.72 0 0 1 -2.58 0z"/><path d="m14.41 30.79h-4.6v-1.33h10.58v1.33h-4.6v13.21h-1.38z"/><path d="m41.51 42.67v1.33h-9.26v-14.54h9v1.33h-7.61v5.21h6.76v1.31h-6.76v5.4z"/><path d="m56.52 43.17a6.74 6.74 0 0 1 -2.45-2.65 8.6 8.6 0 0 1 0-7.58 6.82 6.82 0 0 1 8.67-3.06 5.5 5.5 0 0 1 2.09 1.58l-.88 1a4.94 4.94 0 0 0 -3.87-1.72 5.22 5.22 0 0 0 -2.82.79 5.39 5.39 0 0 0 -2 2.16 6.91 6.91 0 0 0 0 6.14 5.39 5.39 0 0 0 2 2.16 5.22 5.22 0 0 0 2.82.79 4.9 4.9 0 0 0 3.92-1.78l.88 1a5.48 5.48 0 0 1 -2.1 1.59 6.55 6.55 0 0 1 -2.7.55 6.64 6.64 0 0 1 -3.56-.97z"/><path d="m88.38 29.46v14.54h-1.38v-6.71h-8.17v6.71h-1.39v-14.54h1.39v6.48h8.17v-6.48z"/><path d="m113.23 29.46v14.54h-1.14l-8.41-11.8v11.8h-1.38v-14.54h1.14l8.43 11.8v-11.8z"/><path d="m129.35 43.16a6.76 6.76 0 0 1 -2.46-2.65 8.47 8.47 0 0 1 0-7.56 6.76 6.76 0 0 1 2.46-2.65 6.95 6.95 0 0 1 7 0 6.77 6.77 0 0 1 2.46 2.65 8.43 8.43 0 0 1 0 7.58 6.77 6.77 0 0 1 -2.46 2.65 6.95 6.95 0 0 1 -7 0zm6.33-1.16a5.4 5.4 0 0 0 2-2.16 7 7 0 0 0 0-6.16 5.27 5.27 0 0 0 -2-2.16 5.45 5.45 0 0 0 -5.62 0 5.31 5.31 0 0 0 -2 2.16 6.95 6.95 0 0 0 0 6.16 5.44 5.44 0 0 0 2 2.16 5.45 5.45 0 0 0 5.62 0z"/><path d="m152.5 29.46h1.38v13.21h7.33v1.33h-8.71z"/><path d="m175.1 43.16a6.76 6.76 0 0 1 -2.46-2.65 8.47 8.47 0 0 1 0-7.56 6.76 6.76 0 0 1 2.46-2.65 6.95 6.95 0 0 1 7 0 6.77 6.77 0 0 1 2.46 2.65 8.43 8.43 0 0 1 0 7.58 6.77 6.77 0 0 1 -2.46 2.65 6.95 6.95 0 0 1 -7 0zm6.33-1.16a5.4 5.4 0 0 0 2-2.16 7 7 0 0 0 0-6.16 5.27 5.27 0 0 0 -2-2.16 5.18 5.18 0 0 0 -2.8-.78 5.31 5.31 0 0 0 -4.8 2.94 6.95 6.95 0 0 0 0 6.16 5.44 5.44 0 0 0 2 2.16 5.27 5.27 0 0 0 2.82.78 5.18 5.18 0 0 0 2.78-.78z"/><path d="m207.46 36.73h1.33v5.54a6 6 0 0 1 -2.17 1.37 7.26 7.26 0 0 1 -2.63.48 6.61 6.61 0 0 1 -6-3.6 8.43 8.43 0 0 1 0-7.58 6.61 6.61 0 0 1 6-3.6 6.83 6.83 0 0 1 2.74.53 5.48 5.48 0 0 1 2.12 1.56l-.86 1a5.13 5.13 0 0 0 -3.95-1.7 5.4 5.4 0 0 0 -4.88 2.94 6.93 6.93 0 0 0 0 6.15 5.56 5.56 0 0 0 2 2.16 5.69 5.69 0 0 0 6.28-.33z"/><path d="m226.84 39v5h-1.36v-5l-5.23-9.51h1.47l4.49 8.16 4.48-8.16h1.39z"/></g></svg>

<svg id="Layer_1" data-name="Layer 1" xmlns="http://www.w3.org/2000/svg" viewBox="0 0 222.27 35.92"><defs><style>.cls-1{isolation:isolate;}</style></defs><title>logo-01</title><g class="cls-1"><g class="cls-1"><path d="M11.29,8.45h3V23h-3Z" transform="translate(-9.81 -8.2)"/><path d="M30.59,11.19H26.4V8.45H37.81v2.74H33.62V23h-3Z" transform="translate(-9.81 -8.2)"/><path d="M57.86,19.87H51.78L50.63,23H47.52L53.35,8.45h3L62.19,23H59Zm-1-2.55-2.08-5.57-2.07,5.57Z" transform="translate(-9.81 -8.2)"/><path d="M76.48,22.27a6.9,6.9,0,0,1-2.54-2.68A8,8,0,0,1,73,15.72a8,8,0,0,1,.92-3.88,6.8,6.8,0,0,1,2.54-2.67,6.91,6.91,0,0,1,3.64-1,7,7,0,0,1,3.07.66,6.28,6.28,0,0,1,2.31,1.91l-1.94,2a4,4,0,0,0-3.29-1.7,4,4,0,0,0-3.66,2.24,5.34,5.34,0,0,0-.53,2.41,5.37,5.37,0,0,0,.53,2.41,4.11,4.11,0,0,0,1.49,1.65,4.1,4.1,0,0,0,5.46-1.13l1.94,2a6.17,6.17,0,0,1-2.32,1.93,7.06,7.06,0,0,1-3.08.66A7,7,0,0,1,76.48,22.27Z" transform="translate(-9.81 -8.2)"/><path d="M97.83,22.57a2.13,2.13,0,0,1-.52-1.45,2.06,2.06,0,0,1,.52-1.45,1.79,1.79,0,0,1,2.58,0,2,2,0,0,1,.53,1.45,2.09,2.09,0,0,1-.53,1.45,1.72,1.72,0,0,1-2.58,0Z" transform="translate(-9.81 -8.2)"/></g><g class="cls-1"><path d="M14.41,30.79H9.81V29.46H20.39v1.33h-4.6V44H14.41Z" transform="translate(-9.81 -8.2)"/><path d="M41.51,42.67V44H32.25V29.46h9v1.33H33.64V36H40.4v1.31H33.64v5.4Z" transform="translate(-9.81 -8.2)"/><path d="M56.52,43.17a6.74,6.74,0,0,1-2.45-2.65,8.6,8.6,0,0,1,0-7.58,6.82,6.82,0,0,1,8.67-3.06,5.5,5.5,0,0,1,2.09,1.58l-.88,1a4.94,4.94,0,0,0-3.87-1.72,5.22,5.22,0,0,0-2.82.79,5.39,5.39,0,0,0-2,2.16,6.91,6.91,0,0,0,0,6.14,5.39,5.39,0,0,0,2,2.16,5.22,5.22,0,0,0,2.82.79A4.9,4.9,0,0,0,64,41l.88,1a5.48,5.48,0,0,1-2.1,1.59,6.55,6.55,0,0,1-2.7.55A6.64,6.64,0,0,1,56.52,43.17Z" transform="translate(-9.81 -8.2)"/><path d="M88.38,29.46V44H87V37.29H78.83V44H77.44V29.46h1.39v6.48H87V29.46Z" transform="translate(-9.81 -8.2)"/><path d="M113.23,29.46V44h-1.14l-8.41-11.8V44H102.3V29.46h1.14l8.43,11.8V29.46Z" transform="translate(-9.81 -8.2)"/><path d="M129.35,43.16a6.76,6.76,0,0,1-2.46-2.65,8.47,8.47,0,0,1,0-7.56,6.76,6.76,0,0,1,2.46-2.65,6.95,6.95,0,0,1,7,0,6.77,6.77,0,0,1,2.46,2.65,8.43,8.43,0,0,1,0,7.58,6.77,6.77,0,0,1-2.46,2.65,6.95,6.95,0,0,1-7,0ZM135.68,42a5.4,5.4,0,0,0,2-2.16,7,7,0,0,0,0-6.16,5.27,5.27,0,0,0-2-2.16,5.45,5.45,0,0,0-5.62,0,5.31,5.31,0,0,0-2,2.16,6.95,6.95,0,0,0,0,6.16,5.44,5.44,0,0,0,2,2.16,5.45,5.45,0,0,0,5.62,0Z" transform="translate(-9.81 -8.2)"/><path d="M152.5,29.46h1.38V42.67h7.33V44H152.5Z" transform="translate(-9.81 -8.2)"/><path d="M175.1,43.16a6.76,6.76,0,0,1-2.46-2.65,8.47,8.47,0,0,1,0-7.56,6.76,6.76,0,0,1,2.46-2.65,6.95,6.95,0,0,1,7,0,6.77,6.77,0,0,1,2.46,2.65,8.43,8.43,0,0,1,0,7.58,6.77,6.77,0,0,1-2.46,2.65,6.95,6.95,0,0,1-7,0ZM181.43,42a5.4,5.4,0,0,0,2-2.16,7,7,0,0,0,0-6.16,5.27,5.27,0,0,0-2-2.16,5.18,5.18,0,0,0-2.8-.78,5.31,5.31,0,0,0-4.8,2.94,6.95,6.95,0,0,0,0,6.16,5.44,5.44,0,0,0,2,2.16,5.27,5.27,0,0,0,2.82.78A5.18,5.18,0,0,0,181.43,42Z" transform="translate(-9.81 -8.2)"/><path d="M207.46,36.73h1.33v5.54a6,6,0,0,1-2.17,1.37,7.26,7.26,0,0,1-2.63.48,6.61,6.61,0,0,1-6-3.6,8.43,8.43,0,0,1,0-7.58,6.61,6.61,0,0,1,6-3.6,6.83,6.83,0,0,1,2.74.53,5.48,5.48,0,0,1,2.12,1.56l-.86,1a5.13,5.13,0,0,0-3.95-1.7,5.4,5.4,0,0,0-4.88,2.94,6.93,6.93,0,0,0,0,6.15,5.56,5.56,0,0,0,2,2.16,5.69,5.69,0,0,0,6.28-.33Z" transform="translate(-9.81 -8.2)"/><path d="M226.84,39v5h-1.36V39l-5.23-9.51h1.47l4.49,8.16,4.48-8.16h1.39Z" transform="translate(-9.81 -8.2)"/></g></g></svg>
